X: 4
T:Robin Hood and the Bishop of Hereford
M:C
L:1/4
S:BBBM 393
Z:olso
K:G mixolydian
cc/c/c3/2G/|AG/F/E3/2G/|AA/A/DD|G3G|\
":s:"ED/C/GF/E/|Ad/c/BA/G/|cd/e/ f/e/ d/c/|c3":s:"G|]
